X:1
T:Guard the Bible Well
T:Guard the Bible Well
T:William Howard Doane
T:Thomas E. McDougall, 1871
T:Public Domain Courtesy of the Cyber Hymnal™
T:Public Domain Courtesy of the Cyber Hymnal™
C:William Howard Doane
Z:Public Domain
Z:Courtesy of the Cyber Hymnal™
%%score ( 1 2 ) ( 3 4 )
L:1/8
Q:1/4=110
M:4/4
K:A
V:1 treble 
V:2 treble 
V:3 bass 
V:4 bass 
V:1
 [Ec]2 [Ec]2 [DB]>[CA] [CA]2 | [DG]2 [DG]2 [DF]>[DE] [DE]2 | [EA]2 [EB]2 [Ec]>[Ed] [Ac]2 | %3
w: 1.~Guard the Bi- ble well,|All its foes re- pel,|The sweet sto- ry tell|
w: 2.~Book of love di- vine,|Pre- cious words of Thine,|Let it ev- er shine|
w: 3.~Shout the Bi- ble song,|Swell the might- y throng,|In the cause be strong,|
w: 4.~O, ye Christ- ian band,|For this Bi- ble stand,|By the Lord’s com- mand,|
 [Ge]2 [F^d]2 [Ge]4 | [Ec]2 [Ec]2 [DB]>[CA] [CA]2 | [DG]2 [DG]2 [DF]>[DE] [DE]2 | %6
w: of the Lord;|Guard what God re- vealed,|As our sun and shield;|
w: all a- broad;|In the Spir- it’s might|We must win the fight,|
w: of the right;|Look to God in prayer|When the foe you dare,|
w: ne’er give o’er;|Lead the ar- my on|Till the strife is done,|
 [EA]2 [EB]2 [Ec]>[Ed] [Ae]>[Ad] | [Ac]2 [GB]2 A4 ||"^Refrain" [Ec]2 [Ec]2 [Ee]2 [Ee]2 | %9
w: Ne- ver, ne- ver yield His|ho- ly Word.||
w: For this Gos- pel light, The|truth of God.|Rouse, then Christ- ians,|
w: And for- ev- er wear His|ar- mor bright.||
w: And the cause is won, For-|ev- er- more.||
 [FA]>[^EG] [FA]>[FB] [Ec]2 [Ec]2 | [DF]2 [DF]2 [Fd]2 [Fc]2 | [FB]>[Fc] [FB]>[FA] [EB]4 | %12
w: |||
w: Ral- ly for the Bi- ble!|Work on, pray on,|Spread the truth a- broad;|
w: |||
w: |||
 [Ec]2 [Ec]2 [Ee]2 [Ee]2 | [FA]>[^EG] [FA]>[FB] [Ec]2 [Ec]2 | [DF]2 [DF]2 [Fd]2 [Fd]2 | %15
w: |||
w: Stand, then, like men,|In the cause tri- umph- ant,|For the Bi- ble|
w: |||
w: |||
 [Ec]>[FB] [EA]>[EG] [EA]4 |] %16
w: |
w: is the Word of God.|
w: |
w: |
V:2
 x8 | x8 | x8 | x8 | x8 | x8 | x8 | x4 A4 || x8 | x8 | x8 | x8 | x8 | x8 | x8 | x8 |] %16
V:3
 A,2 A,2 A,>A, A,2 | [E,B,]2 [E,B,]2 [E,A,]>[E,G,] [E,G,]2 | [C,A,]2 [E,G,]2 A,>[A,B,] [A,C]2 | %3
 B,2 [B,,B,]2 [E,B,]4 | A,2 A,2 A,>A, A,2 | [E,B,]2 [E,B,]2 [E,A,]>[E,G,] [E,G,]2 | %6
 [C,A,]2 [E,G,]2 A,>[A,B,] [A,C]>[D,F] | [E,E]2 [E,D]2 [A,,A,C]4 || A,2 A,2 [G,B,]2 [G,B,]2 | %9
 [F,C]>[F,D] [D,E]>[D,F,] [C,G,]2 [C,C]2 | [D,A,]2 [D,A,]2 [B,,B,]2 [C,^A,]2 | %11
 [D,B,]>[D,B,] [^D,B,]>[D,B,] [E,G,]4 | A,2 A,2 [G,B,]2 [G,B,]2 | %13
 [F,C]>[F,C] [D,D]>[D,F,] [C,B,]2 [C,C]2 | [D,A,]2 [D,A,]2 [B,,B,]2 [B,,B,]2 | %15
 [C,A,]>[D,D] [E,C]>[E,B,] [A,,C]4 |] %16
V:4
 A,2 A,2 A,>A, A,2 | x8 | x4 A,3/2 x5/2 | B,2 x6 | A,2 A,2 A,>A, A,2 | x8 | x4 A,3/2 x5/2 | x8 || %8
 A,2 A,2 x4 | x8 | x8 | x8 | A,2 A,2 x4 | x8 | x8 | x8 |] %16

